X:1
T:Joey's Tune
M:6/8
L:1/8
Q:80
C:
S:Slow Air
K:HP
|: {g}f3/4e/4 | \
{g}d2{GBG}A{g}B/2d3/2B | \
{G}A3/2{g}B/2de/2{g}d3/2{g}f/2e/2 |
{g}d2{GBG}A{g}B/2d3/2e | \
{g}f3/2e/2d{gef}e2{g}f3/4e/4{g}d2{GBG}A{g}B/2d3/2B | \
{G}A3/2{g}B/2de/2{g}d3/2{gf}g |
{a}f3/2{g}e/2d{g}f/2a3/2{f}g | \
f/2{g}d3/2e{Gdc}d2 :: \
{g}f3/4g/4 |
{ag}a3/2f/2e{g}d/2e3/2f | \
{g}A3/2{g}B/2d{g}B/2{G}A3/2{g}f3/4g/4 | \
{ag}a3/2f/2e{g}d/2e3/2f |
{g}e3/2{g}d/2f{gef}e2{g}f3/4g/4|1 {ag}a3/2f/2e{g}d/2e3/2f | \
{g}A3/2{g}B/2d{g}B/2{G}A3/2{d}B | \
{Gdc}d3/2{g}e/2fa/2f3/2d |
{g}e/2f3/2e{Gdc}d2 :|
